static/logos/americanExpress-wordmark-color.svg

<svg width="59" height="56" viewBox="0 0 59 56" fill="none" xmlns="http://www.w3.org/2000/svg">
<g clip-path="url(#clip0_1204_84)">
<path fill-rule="evenodd" clip-rule="evenodd" d="M1.81688 55.0007H1.63393C1.63393 54.9094 1.58812 54.7719 1.58812 54.7257C1.58812 54.6803 1.58812 54.589 1.45066 54.589H1.17574V55.0007H1.03828V54.0391H1.45066C1.63393 54.0391 1.77106 54.0853 1.77106 54.2679C1.77106 54.4053 1.72524 54.4515 1.67975 54.4967C1.72557 54.5428 1.77106 54.5886 1.77106 54.6803V54.8632C1.77106 54.9094 1.77106 54.9094 1.81688 54.9094V55.0007ZM1.63393 54.314C1.63393 54.1766 1.5423 54.1766 1.49648 54.1766H1.17574V54.4515H1.45066C1.5423 54.4515 1.63393 54.4053 1.63393 54.314ZM2.41254 54.497C2.41254 53.9478 1.95467 53.4893 1.35902 53.4893C0.809514 53.4893 0.351318 53.9478 0.351318 54.497C0.351318 55.0923 0.809514 55.5508 1.35902 55.5508C1.95434 55.5505 2.41254 55.0923 2.41254 54.497ZM2.27508 54.497C2.27508 55.001 1.86303 55.3672 1.35902 55.3672C0.855002 55.3672 0.488777 55.0007 0.488777 54.497C0.488777 54.0391 0.855334 53.6267 1.35902 53.6267C1.8627 53.6267 2.27508 54.0391 2.27508 54.497ZM58.7042 35.9928C58.7042 37.3671 57.834 38.0076 56.2764 38.0076H53.2998V36.6333H56.2764C56.5514 36.6333 56.7805 36.5878 56.8724 36.4965C56.9637 36.4046 57.0554 36.2671 57.0554 36.0841C57.0554 35.9005 56.9641 35.7176 56.8724 35.6263C56.7806 35.5344 56.5973 35.4886 56.3226 35.4888C54.9032 35.4427 53.1166 35.5343 53.1166 33.5192C53.1166 32.6029 53.7119 31.5952 55.3149 31.5952H58.3835V32.9694H55.5437C55.2694 32.9694 55.0858 32.9694 54.9483 33.0607C54.8109 33.1982 54.7196 33.3356 54.7196 33.5647C54.7196 33.7938 54.857 33.9313 55.04 34.0233C55.2236 34.0688 55.4069 34.1146 55.636 34.1146H56.4601C57.3303 34.1146 57.8801 34.2975 58.2467 34.6186C58.5209 34.939 58.7042 35.3517 58.7042 35.9928ZM52.246 34.6186C51.8794 34.2975 51.3296 34.1146 50.4593 34.1146H49.6353C49.4065 34.1146 49.2229 34.0684 49.0399 34.0233C48.8563 33.9313 48.7195 33.7938 48.7195 33.5647C48.7195 33.3356 48.765 33.1982 48.9483 33.0607C49.0858 32.9694 49.2687 32.9694 49.5436 32.9694H52.3834V31.5952H49.3149C47.6657 31.5952 47.1158 32.6029 47.1158 33.5192C47.1158 35.534 48.9025 35.4427 50.3226 35.4888C50.597 35.4888 50.7801 35.5346 50.8717 35.6263C50.963 35.7176 51.0553 35.9005 51.0553 36.0841C51.0553 36.2671 50.9634 36.4046 50.8717 36.4965C50.7343 36.5878 50.5513 36.6333 50.2764 36.6333H47.2991V38.0076H50.2764C51.8333 38.0076 52.7038 37.3668 52.7038 35.9928C52.7038 35.3517 52.5209 34.939 52.246 34.6186ZM46.3831 36.6798H42.7653V35.3972H46.2918V34.1152H42.7653V32.9239H46.3831V31.5958H41.2536V38.0079H46.3831V36.6798ZM39.6044 31.9166C39.1004 31.6416 38.5051 31.5955 37.7265 31.5955H34.2V38.0076H35.7569V35.6718H37.4061C37.9553 35.6718 38.2763 35.7179 38.5054 35.9467C38.7803 36.2671 38.7803 36.8169 38.7803 37.2293V38.0076H40.2914V36.7708C40.2914 36.1755 40.2459 35.9005 40.0626 35.5801C39.9252 35.3965 39.6509 35.1678 39.2844 35.0303C39.6961 34.8935 40.3837 34.3437 40.3837 33.3356C40.3834 32.6032 40.1084 32.1908 39.6044 31.9166ZM30.902 31.5955H26.001L24.0314 33.7025L22.1535 31.5955H15.9702V38.0076H22.0622L24.0317 35.9005L25.9097 38.0076H28.887V35.8554H30.8107C32.1388 35.8554 33.4676 35.4888 33.4676 33.7025C33.4673 31.962 32.093 31.5955 30.902 31.5955ZM38.3676 34.2524C38.1389 34.3437 37.9098 34.3437 37.6348 34.3437L35.7569 34.3898V32.9236H37.6348C37.9098 32.9236 38.1847 32.9236 38.3676 33.0611C38.5512 33.153 38.688 33.336 38.688 33.6109C38.688 33.8858 38.5512 34.1149 38.3676 34.2524ZM30.902 34.5728H28.8866V32.9236H30.902C31.4519 32.9236 31.8181 33.153 31.8181 33.7025C31.8181 34.252 31.4515 34.5728 30.902 34.5728ZM24.9933 34.8015L27.3749 32.2828V37.4584L24.9933 34.8015ZM21.2832 36.6798H17.4815V35.3972H20.8709V34.1152H17.4815V32.9239H21.3291L23.0237 34.8019L21.2832 36.6798ZM54.4443 26.9694H52.246L49.3603 22.16V26.9694H46.2463L45.6503 25.5493H42.4442L41.8489 26.9694H40.0623C39.3295 26.9694 38.3676 26.7861 37.8185 26.2363C37.3144 25.6868 37.0395 24.954 37.0395 23.8088C37.0395 22.8469 37.177 21.9767 37.8636 21.2897C38.3215 20.7857 39.1462 20.557 40.1994 20.557H41.665V21.9312H40.1994C39.6502 21.9312 39.3292 22.0229 39.0088 22.2978C38.7339 22.5727 38.5964 23.0764 38.5964 23.7633C38.5964 24.4503 38.7339 24.9543 39.0088 25.275C39.2375 25.5038 39.6502 25.5954 40.062 25.5954H40.7492L42.9476 20.5573H45.2379L47.8028 26.6031V20.557H50.1848L52.8871 24.9998V20.557H54.444L54.4443 26.9694ZM36.2609 20.557H34.7041V26.9694H36.2609V20.557ZM33.0087 20.8319C32.5047 20.557 31.9555 20.557 31.1769 20.557H27.6498V26.9694H29.1612V24.6332H30.8101C31.3599 24.6332 31.7264 24.6791 31.9552 24.9082C32.2301 25.2289 32.184 25.7787 32.184 26.145V26.9694H33.7408V25.6868C33.7408 25.1373 33.6954 24.8623 33.4666 24.5416C33.3291 24.3583 33.0542 24.1292 32.7338 23.9921C33.1455 23.8088 33.8331 23.3051 33.8331 22.2974C33.8335 21.5647 33.5124 21.1523 33.0087 20.8319ZM26.5505 25.6413H22.9779V24.3587H26.5047V23.0306H22.9779V21.8854H26.5505V20.5573H21.4207V26.9697H26.5505V25.6413ZM20.2755 20.557H17.7565L15.8785 24.9082L13.8631 20.557H11.3899V26.6028L8.77913 20.557H6.48915L3.74097 26.9694H5.38981L5.98514 25.5493H9.19118L9.7865 26.9694H12.9012V21.9312L15.1454 26.9694H16.4735L18.718 21.9312V26.9694H20.2752L20.2755 20.557ZM45.1011 24.1754L44.0473 21.6563L42.9941 24.1754H45.1011ZM31.8181 23.168C31.5893 23.3055 31.3602 23.3055 31.0395 23.3055H29.1612V21.8857H31.0392C31.3141 21.8857 31.6341 21.8857 31.8178 21.9774C32.0007 22.1148 32.0927 22.2981 32.0927 22.5727C32.0927 22.8473 32.001 23.076 31.8181 23.168ZM6.53464 24.1754L7.58816 21.6563L8.64167 24.1754H6.53464ZM58.338 0.449463H3.69482V23.5342L5.57276 19.2747H9.5574L10.1072 20.3282V19.2747H14.7792L15.8327 21.5647L16.8404 19.2747H31.7264C32.4131 19.2747 33.0084 19.4121 33.4669 19.7784V19.2747H37.5432V19.7784C38.2298 19.4118 39.1001 19.2747 40.1081 19.2747H46.0165L46.5663 20.3282V19.2747H50.9175L51.559 20.3282V19.2747H55.8182V28.252H51.5132L50.6891 26.8781V28.252H45.3299L44.7346 26.7864H43.4058L42.8105 28.252H40.0168C38.9175 28.252 38.0927 27.9771 37.5435 27.7025V28.252H30.902V26.1908C30.902 25.9159 30.8562 25.87 30.6729 25.87H30.4442V28.2517H17.619V27.1065L17.1611 28.2517H14.4588L14.0009 27.1523V28.2517H8.82495L8.27545 26.7861H6.94701L6.35169 28.2517H3.69482V55.3214H58.338V38.8778C57.7427 39.1527 56.9179 39.2902 56.0935 39.2902H52.1085V38.7404C51.6507 39.1072 50.8259 39.2902 50.0476 39.2902H37.4974V37.2293C37.4974 36.9544 37.4519 36.9544 37.2225 36.9544H36.9937V39.2902H32.8713V36.8628C32.1846 37.1832 31.4057 37.1832 30.7187 37.1832H30.2606V39.2902H25.2224L24.0317 37.9159L22.7036 39.2902H14.5959V30.3132H22.8404L24.0314 31.6868L25.314 30.3132H30.8562C31.497 30.3132 32.5509 30.4045 33.0087 30.8624V30.3132H37.9552C38.4593 30.3132 39.4215 30.4045 40.0623 30.8624V30.3132H47.5282V30.8627C47.9406 30.4962 48.7195 30.3135 49.4062 30.3135H53.5741V30.8627C54.0326 30.5423 54.6734 30.3135 55.4982 30.3135H58.338V0.449463Z" fill="#0077A6"/>
</g>
<defs>
<clipPath id="clip0_1204_84">
<rect width="59" height="56" fill="white"/>
</clipPath>
</defs>
</svg>

<svg xmlns="http://www.w3.org/2000/svg" width="67.429" height="64" fill="none" viewBox="0 0 59 56"><g clip-path="url(#a)"><path fill="#0077A6" fill-rule="evenodd" d="M1.817 55h-.183c0-.09-.046-.228-.046-.274s0-.137-.137-.137h-.275v.412h-.138v-.962h.413c.183 0 .32.046.32.229 0 .137-.046.184-.091.229.046.046.091.092.091.183v.183c0 .046 0 .046.046.046zm-.183-.686c0-.137-.092-.137-.138-.137h-.32v.275h.275c.091 0 .183-.047.183-.138m.779.183c0-.55-.458-1.008-1.054-1.008-.55 0-1.008.459-1.008 1.008 0 .595.459 1.054 1.008 1.054.595 0 1.054-.459 1.054-1.054m-.138 0c0 .504-.412.87-.916.87a.84.84 0 0 1-.87-.87.87.87 0 0 1 .87-.87c.504 0 .916.412.916.87m56.43-18.504c0 1.374-.871 2.015-2.429 2.015H53.3v-1.375h2.976c.275 0 .505-.045.596-.137a.58.58 0 0 0 .183-.412.7.7 0 0 0-.183-.458q-.137-.138-.55-.137c-1.419-.046-3.205.045-3.205-1.97 0-.916.595-1.924 2.198-1.924h3.069v1.374h-2.84c-.275 0-.458 0-.596.092-.137.137-.228.275-.228.504s.137.366.32.458c.184.046.367.092.596.092h.824c.87 0 1.42.182 1.787.504.274.32.457.733.457 1.374m-6.459-1.374c-.367-.322-.916-.504-1.787-.504h-.824c-.228 0-.412-.047-.595-.092-.184-.092-.32-.23-.32-.458 0-.23.045-.367.228-.504.138-.092.32-.092.596-.092h2.84v-1.374h-3.07c-1.648 0-2.198 1.008-2.198 1.924 0 2.015 1.787 1.924 3.207 1.97q.411 0 .549.137a.7.7 0 0 1 .183.458c0 .183-.092.32-.183.412-.138.092-.32.137-.596.137H47.3v1.375h2.977c1.557 0 2.428-.641 2.428-2.015 0-.641-.183-1.054-.458-1.374m-5.863 2.06h-3.618v-1.282h3.527v-1.282h-3.527v-1.191h3.618v-1.328h-5.13v6.412h5.13zm-6.779-4.762c-.504-.275-1.099-.322-1.877-.322H34.2v6.413h1.557v-2.336h1.65c.548 0 .87.046 1.098.275.275.32.275.87.275 1.282v.779h1.511V36.77c0-.596-.045-.87-.228-1.19-.138-.184-.412-.413-.779-.55.412-.137 1.1-.687 1.1-1.695 0-.733-.276-1.145-.78-1.42m-8.702-.322h-4.901l-1.97 2.108-1.877-2.108H15.97v6.413h6.092l1.97-2.108 1.878 2.108h2.977v-2.153h1.924c1.328 0 2.657-.366 2.657-2.152 0-1.741-1.375-2.108-2.566-2.108m7.466 2.657c-.23.092-.458.092-.733.092l-1.878.046v-1.466h1.878c.275 0 .55 0 .733.137.183.092.32.275.32.55a.8.8 0 0 1-.32.641m-7.466.32h-2.015v-1.648h2.015c.55 0 .916.229.916.779 0 .549-.367.87-.916.87m-5.909.23 2.382-2.52v5.176zm-3.71 1.878h-3.802v-1.283h3.39v-1.282h-3.39v-1.191h3.848l1.695 1.878zm33.161-9.71h-2.198l-2.886-4.81v4.81h-3.114l-.596-1.42h-3.206l-.595 1.42h-1.787c-.732 0-1.694-.184-2.243-.734-.505-.55-.78-1.282-.78-2.427 0-.962.138-1.832.825-2.52.458-.503 1.282-.732 2.335-.732h1.466v1.374h-1.466c-.549 0-.87.092-1.19.367-.275.275-.413.778-.413 1.465q0 1.03.413 1.512c.228.229.641.32 1.053.32h.687l2.199-5.038h2.29l2.565 6.046v-6.046h2.382L52.887 25v-4.443h1.557zm-18.183-6.413h-1.557v6.412h1.557zm-3.252.275c-.504-.275-1.053-.275-1.832-.275H27.65v6.412h1.511v-2.336h1.65c.549 0 .915.046 1.144.275.275.32.229.87.229 1.237v.824h1.557v-1.282c0-.55-.046-.825-.274-1.145a1.9 1.9 0 0 0-.733-.55c.411-.183 1.1-.687 1.1-1.695 0-.732-.322-1.145-.825-1.465m-6.459 4.81h-3.572v-1.283h3.527V23.03h-3.527v-1.146h3.572v-1.328h-5.13v6.413h5.13zm-6.274-5.085h-2.52l-1.877 4.351-2.016-4.351H11.39v6.046l-2.61-6.046H6.49L3.74 26.969H5.39l.595-1.42h3.206l.595 1.42h3.115v-5.038l2.244 5.038h1.329l2.244-5.038v5.038h1.557zM45.1 24.175l-1.054-2.519-1.053 2.52zm-13.283-1.007c-.229.137-.458.137-.779.137h-1.878v-1.42h1.878c.275 0 .595 0 .779.092.183.138.275.321.275.596s-.092.503-.275.595M6.535 24.175l1.053-2.519 1.054 2.52zM58.338.45H3.695v23.085l1.878-4.26h3.984l.55 1.054v-1.053h4.672l1.054 2.29 1.007-2.29h14.886c.687 0 1.282.137 1.74.503v-.503h4.077v.503c.687-.366 1.557-.503 2.565-.503h5.909l.55 1.053v-1.053h4.35l.642 1.053v-1.053h4.26v8.977h-4.306l-.824-1.374v1.374h-5.36l-.594-1.466h-1.33l-.595 1.466h-2.793c-1.1 0-1.924-.275-2.474-.55v.55h-6.641v-2.061c0-.275-.046-.321-.23-.321h-.228v2.382H17.62v-1.145l-.458 1.145H14.46l-.458-1.1v1.1H8.825l-.55-1.466H6.947l-.595 1.466H3.695v27.07h54.643V38.877c-.595.275-1.42.412-2.245.412h-3.985v-.55c-.457.367-1.282.55-2.06.55h-12.55v-2.06c0-.276-.046-.276-.276-.276h-.228v2.336H32.87v-2.427c-.686.32-1.465.32-2.152.32h-.458v2.107h-5.039l-1.19-1.374-1.328 1.374h-8.108v-8.977h8.244l1.191 1.374 1.283-1.374h5.542c.641 0 1.695.091 2.153.55v-.55h4.946c.504 0 1.467.091 2.107.55v-.55h7.466v.55c.413-.367 1.191-.55 1.878-.55h4.168v.55c.459-.32 1.1-.55 1.924-.55h2.84z" clip-rule="evenodd"/></g><defs><clipPath id="a"><path fill="#fff" d="M0 0h59v56H0z"/></clipPath></defs></svg>
